media/icons/c.svg

<?xml version="1.0" encoding="UTF-8"?>
<svg xmlns="http://www.w3.org/2000/svg" width="48pt" height="48pt" viewBox="0 0 48 48" version="1.1">
<g id="surface1694004">
<path style=" stroke:none;fill-rule:evenodd;fill:rgb(100%,100%,100%);fill-opacity:1;" d="M 22.902344 3.285156 C 23.582031 2.90625 24.417969 2.90625 25.097656 3.285156 C 28.449219 5.167969 38.546875 10.835938 41.902344 12.71875 C 42.582031 13.101562 43 13.804688 43 14.566406 C 43 18.332031 43 29.667969 43 33.433594 C 43 34.195312 42.582031 34.898438 41.902344 35.28125 C 38.546875 37.164062 28.453125 42.832031 25.097656 44.714844 C 24.417969 45.09375 23.582031 45.09375 22.902344 44.714844 C 19.546875 42.832031 9.453125 37.164062 6.097656 35.28125 C 5.417969 34.898438 5 34.195312 5 33.433594 C 5 29.667969 5 18.332031 5 14.566406 C 5 13.804688 5.417969 13.101562 6.097656 12.71875 C 9.449219 10.835938 19.550781 5.167969 22.902344 3.285156 Z M 22.902344 3.285156 "/>
<path style=" stroke:none;fill-rule:evenodd;fill:rgb(100%,100%,100%);fill-opacity:1;" d="M 5.304688 34.402344 C 5.039062 34.046875 5 33.710938 5 33.253906 C 5 29.511719 5 18.242188 5 14.496094 C 5 13.738281 5.417969 13.039062 6.09375 12.660156 C 9.4375 10.789062 19.5 5.152344 22.84375 3.28125 C 23.519531 2.902344 24.4375 2.910156 25.113281 3.289062 C 28.457031 5.160156 38.484375 10.746094 41.828125 12.617188 C 42.097656 12.769531 42.304688 12.953125 42.488281 13.195312 Z M 5.304688 34.402344 "/>
<path style=" stroke:none;fill-rule:evenodd;fill:rgb(20%,20%,20%);fill-opacity:1;" d="M 24 10 C 31.726562 10 38 16.273438 38 24 C 38 31.726562 31.726562 38 24 38 C 16.273438 38 10 31.726562 10 24 C 10 16.273438 16.273438 10 24 10 Z M 24 17 C 27.863281 17 31 20.136719 31 24 C 31 27.863281 27.863281 31 24 31 C 20.136719 31 17 27.863281 17 24 C 17 20.136719 20.136719 17 24 17 Z M 24 17 "/>
<path style=" stroke:none;fill-rule:evenodd;fill:rgb(100%,100%,100%);fill-opacity:1;" d="M 42.484375 13.203125 C 43 13.6875 42.992188 14.414062 42.992188 14.988281 C 42.992188 18.785156 42.960938 29.578125 43 33.371094 C 43.003906 33.769531 42.871094 34.1875 42.675781 34.5 L 23.59375 24 Z M 42.484375 13.203125 "/>
</g>
</svg>

<?xml version="1.0" encoding="UTF-8" standalone="no"?>
<svg
   xmlns:dc="http://purl.org/dc/elements/1.1/"
   xmlns:cc="http://creativecommons.org/ns#"
   xmlns:rdf="http://www.w3.org/1999/02/22-rdf-syntax-ns#"
   xmlns:svg="http://www.w3.org/2000/svg"
   xmlns="http://www.w3.org/2000/svg"
   xmlns:sodipodi="http://sodipodi.sourceforge.net/DTD/sodipodi-0.dtd"
   xmlns:inkscape="http://www.inkscape.org/namespaces/inkscape"
   viewBox="0 0 48 48"
   width="48px"
   height="48px"
   version="1.1"
   id="svg194"
   sodipodi:docname="c.svg"
   inkscape:export-filename="/home/ernest/Documents/Random Programs/Javascript/Website/media/icons/c.png"
   inkscape:export-xdpi="96"
   inkscape:export-ydpi="96"
   inkscape:version="1.0.1 (3bc2e813f5, 2020-09-07)">
  <metadata
     id="metadata200">
    <rdf:RDF>
      <cc:Work
         rdf:about="">
        <dc:format>image/svg+xml</dc:format>
        <dc:type
           rdf:resource="http://purl.org/dc/dcmitype/StillImage" />
      </cc:Work>
    </rdf:RDF>
  </metadata>
  <defs
     id="defs198" />
  <sodipodi:namedview
     pagecolor="#ffffff"
     bordercolor="#666666"
     borderopacity="1"
     objecttolerance="10"
     gridtolerance="10"
     guidetolerance="10"
     inkscape:pageopacity="0"
     inkscape:pageshadow="2"
     inkscape:window-width="1920"
     inkscape:window-height="1016"
     id="namedview196"
     showgrid="false"
     inkscape:zoom="17.9375"
     inkscape:cx="11.84669"
     inkscape:cy="24"
     inkscape:window-x="0"
     inkscape:window-y="28"
     inkscape:window-maximized="1"
     inkscape:current-layer="svg194"
     inkscape:document-rotation="0" />
  <path
     fill="#000000"
     fill-rule="evenodd"
     d="M22.903,3.286c0.679-0.381,1.515-0.381,2.193,0 c3.355,1.883,13.451,7.551,16.807,9.434C42.582,13.1,43,13.804,43,14.566c0,3.766,0,15.101,0,18.867 c0,0.762-0.418,1.466-1.097,1.847c-3.355,1.883-13.451,7.551-16.807,9.434c-0.679,0.381-1.515,0.381-2.193,0 c-3.355-1.883-13.451-7.551-16.807-9.434C5.418,34.899,5,34.196,5,33.434c0-3.766,0-15.101,0-18.867 c0-0.762,0.418-1.466,1.097-1.847C9.451,10.837,19.549,5.169,22.903,3.286z"
     clip-rule="evenodd"
     id="path186" />
  <path
     fill="#ffffff"
     fill-rule="evenodd"
     d="M24,10c7.727,0,14,6.273,14,14s-6.273,14-14,14 s-14-6.273-14-14S16.273,10,24,10z M24,17c3.863,0,7,3.136,7,7c0,3.863-3.137,7-7,7s-7-3.137-7-7C17,20.136,20.136,17,24,17z"
     clip-rule="evenodd"
     id="path190" />
  <path
     fill="#000000"
     fill-rule="evenodd"
     d="M42.485,13.205c0.516,0.483,0.506,1.211,0.506,1.784 c0,3.795-0.032,14.589,0.009,18.384c0.004,0.396-0.127,0.813-0.323,1.127L23.593,24L42.485,13.205z"
     clip-rule="evenodd"
     id="path192" />
</svg>
